symbols/web/filter_6/materialsymbolsoutlined/filter_6_wght600gradN25_48px.svg

<svg xmlns="http://www.w3.org/2000/svg" height="48" width="48"><path d="M24.65 30.6h5.55q1.35 0 2.25-.9.9-.9.9-2.3v-5.15q0-1.35-.9-2.3-.9-.95-2.25-.95h-5.55v-5.2h6.6v-3.2h-6.6q-1.4 0-2.325.925-.925.925-.925 2.275v13.6q0 1.4.925 2.3.925.9 2.325.9Zm0-8.35h5.55v5.15h-5.55Zm-11.05 16q-1.55 0-2.7-1.15-1.15-1.15-1.15-2.7V6.9q0-1.6 1.15-2.725t2.7-1.125h27.5q1.6 0 2.725 1.125T44.95 6.9v27.5q0 1.55-1.125 2.7-1.125 1.15-2.725 1.15Zm0-3.85h27.5V6.9H13.6v27.5ZM6.9 44.95q-1.6 0-2.725-1.125T3.05 41.1V9.75H6.9V41.1h31.35v3.85ZM13.6 6.9v27.5V6.9Z"/></svg>

<svg xmlns="http://www.w3.org/2000/svg" height="48" width="48"><path d="M24.65 19V13.8Q24.65 13.8 24.65 13.8Q24.65 13.8 24.65 13.8H31.25V10.6H24.65Q23.25 10.6 22.325 11.525Q21.4 12.45 21.4 13.8V27.4Q21.4 28.8 22.325 29.7Q23.25 30.6 24.65 30.6H30.2Q31.55 30.6 32.45 29.7Q33.35 28.8 33.35 27.4V22.25Q33.35 20.9 32.45 19.95Q31.55 19 30.2 19ZM24.65 22.25H30.2Q30.2 22.25 30.2 22.25Q30.2 22.25 30.2 22.25V27.4Q30.2 27.4 30.2 27.4Q30.2 27.4 30.2 27.4H24.65Q24.65 27.4 24.65 27.4Q24.65 27.4 24.65 27.4ZM13.6 38.25Q12.05 38.25 10.9 37.1Q9.75 35.95 9.75 34.4V6.9Q9.75 5.3 10.9 4.175Q12.05 3.05 13.6 3.05H41.1Q42.7 3.05 43.825 4.175Q44.95 5.3 44.95 6.9V34.4Q44.95 35.95 43.825 37.1Q42.7 38.25 41.1 38.25ZM13.6 34.4H41.1Q41.1 34.4 41.1 34.4Q41.1 34.4 41.1 34.4V6.9Q41.1 6.9 41.1 6.9Q41.1 6.9 41.1 6.9H13.6Q13.6 6.9 13.6 6.9Q13.6 6.9 13.6 6.9V34.4Q13.6 34.4 13.6 34.4Q13.6 34.4 13.6 34.4ZM6.9 44.95Q5.3 44.95 4.175 43.825Q3.05 42.7 3.05 41.1V9.75H6.9V41.1Q6.9 41.1 6.9 41.1Q6.9 41.1 6.9 41.1H38.25V44.95ZM13.6 6.9Q13.6 6.9 13.6 6.9Q13.6 6.9 13.6 6.9V34.4Q13.6 34.4 13.6 34.4Q13.6 34.4 13.6 34.4Q13.6 34.4 13.6 34.4Q13.6 34.4 13.6 34.4V6.9Q13.6 6.9 13.6 6.9Q13.6 6.9 13.6 6.9Z"/></svg>
